X:1
T:Gladness, 8.10.10.12.11
T:Gladness, 8.10.10.12.11
T:Bohemian melody, 12th Century
T:Public Domain Courtesy of the Cyber Hymnal™
C:Bohemian melody, 12th Century
Z:Public Domain
Z:Courtesy of the Cyber Hymnal™
%%score ( 1 2 ) ( 3 4 )
L:1/8
Q:1/4=110
M:4/4
K:F
V:1 treble 
V:2 treble 
V:3 bass 
V:4 bass 
V:1
 [CF]2 [DF]2 [CG]2 [CA]2 | [DB]2 [CB]2 [CA]2 [CA]2 | [CG]2 G2 [FA]2 [FA]2 | G4 [CF]2 z2 | %4
 [CF]2 [DF]2 [CG]2 [CA]2 | [DB]2 [CB]2 [CA]2 [CA]2 | [CG]2 G2 [FA]2 [FA]2 | G4 [CF]2 z2 | %8
 [Fc]2 [Fd]2 [Fc]4 | [DB]2 [CB]2 [CA]4 | [Fc]2 [Fd]2 [Ec]4 | [DB]2 [CB]2 [CA]4 | %12
 [FA]2 G2 [FA]2 [FB]2 | [Fc]2 [Fd]2 [Ec]2 [DB]2 | [CA]4 [CG]4 | [CA]6 z2 | [FA]2 G2 [FA]2 [FB]2 | %17
 [Fc]2 [Fd]2 [Ec]2 [GB]2 | [FA]4 G4 | [CF]8 |] %20
V:2
 x8 | x8 | x2 G2 x4 | (F2 E2) x4 | x8 | x8 | x2 G2 x4 | (F2 E2) x4 | x8 | x8 | x8 | x8 | x2 G2 x4 | %13
 x8 | x8 | x8 | x2 G2 x4 | x8 | x4 (F2 E2) | x8 |] %20
V:3
 [F,A,]2 [D,A,]2 [E,G,]2 F,2 | [B,,F,]2 [C,E,]2 [F,,F,]2 [A,,F,]2 | [C,E,]2 [E,C]2 [F,C]2 [D,D]2 | %3
 ([B,,D]2 [C,C]2) [F,A,]2 z2 | [F,A,]2 [D,A,]2 [E,G,]2 F,2 | [B,,F,]2 [C,E,]2 [F,,F,]2 [A,,F,]2 | %6
 [C,E,]2 [E,C]2 [F,C]2 [D,D]2 | ([B,,D]2 [C,C]2) [F,A,]2 z2 | [F,A,]2 [B,,B,]2 [F,A,]4 | %9
 G,2 [E,G,]2 F,4 | [A,,C]2 [B,,B,]2 [C,G,]4 | [D,F,]2 [E,G,]2 F,4 | [F,C]2 [E,C]2 [F,C]2 [D,D]2 | %13
 [A,,C]2 [B,,B,]2 [C,G,]2 [G,,G,]2 | [A,,F,]4 [C,E,]4 | F,6 z2 | [F,C]2 [E,C]2 [F,C]2 [D,D]2 | %17
 [A,,C]2 [B,,B,]2 [C,G,]2 [G,,D]2 | [A,,C]4 [C,C]4 | [F,A,]8 |] %20
V:4
 x6 F,2 | x8 | x8 | x8 | x6 F,2 | x8 | x8 | x8 | x8 | G,2 F,4 x2 | x8 | x4 F,4 | x8 | x8 | x8 | %15
 F,6 x2 | x8 | x8 | x8 | x8 |] %20

